app/assets/images/heroicons/micro/film.svg

<svg width="16" height="16" viewBox="0 0 16 16" fill="none" xmlns="http://www.w3.org/2000/svg">
<path fill-rule="evenodd" clip-rule="evenodd" d="M1 3.5C1 2.67157 1.67157 2 2.5 2H13.5C14.3284 2 15 2.67157 15 3.5V12.5C15 13.3284 14.3284 14 13.5 14H2.5C1.67157 14 1 13.3284 1 12.5V3.5ZM2.5 3.75C2.5 3.61193 2.61193 3.5 2.75 3.5H4.25C4.38807 3.5 4.5 3.61193 4.5 3.75V4.75C4.5 4.88807 4.38807 5 4.25 5H2.75C2.61193 5 2.5 4.88807 2.5 4.75V3.75ZM6.25 3.5C6.11193 3.5 6 3.61193 6 3.75V7.25C6 7.38807 6.11193 7.5 6.25 7.5H9.75C9.88807 7.5 10 7.38807 10 7.25V3.75C10 3.61193 9.88807 3.5 9.75 3.5H6.25ZM6 8.75C6 8.61193 6.11193 8.5 6.25 8.5H9.75C9.88807 8.5 10 8.61193 10 8.75V12.25C10 12.3881 9.88807 12.5 9.75 12.5H6.25C6.11193 12.5 6 12.3881 6 12.25V8.75ZM11.75 3.5C11.6119 3.5 11.5 3.61193 11.5 3.75V4.75C11.5 4.88807 11.6119 5 11.75 5H13.25C13.3881 5 13.5 4.88807 13.5 4.75V3.75C13.5 3.61193 13.3881 3.5 13.25 3.5H11.75ZM2.5 11.25C2.5 11.1119 2.61193 11 2.75 11H4.25C4.38807 11 4.5 11.1119 4.5 11.25V12.25C4.5 12.3881 4.38807 12.5 4.25 12.5H2.75C2.61193 12.5 2.5 12.3881 2.5 12.25V11.25ZM11.75 11C11.6119 11 11.5 11.1119 11.5 11.25V12.25C11.5 12.3881 11.6119 12.5 11.75 12.5H13.25C13.3881 12.5 13.5 12.3881 13.5 12.25V11.25C13.5 11.1119 13.3881 11 13.25 11H11.75ZM2.5 8.75C2.5 8.61193 2.61193 8.5 2.75 8.5H4.25C4.38807 8.5 4.5 8.61193 4.5 8.75V9.75C4.5 9.88807 4.38807 10 4.25 10H2.75C2.61193 10 2.5 9.88807 2.5 9.75V8.75ZM11.75 8.5C11.6119 8.5 11.5 8.61193 11.5 8.75V9.75C11.5 9.88807 11.6119 10 11.75 10H13.25C13.3881 10 13.5 9.88807 13.5 9.75V8.75C13.5 8.61193 13.3881 8.5 13.25 8.5H11.75ZM2.5 6.25C2.5 6.11193 2.61193 6 2.75 6H4.25C4.38807 6 4.5 6.11193 4.5 6.25V7.25C4.5 7.38807 4.38807 7.5 4.25 7.5H2.75C2.61193 7.5 2.5 7.38807 2.5 7.25V6.25ZM11.75 6C11.6119 6 11.5 6.11193 11.5 6.25V7.25C11.5 7.38807 11.6119 7.5 11.75 7.5H13.25C13.3881 7.5 13.5 7.38807 13.5 7.25V6.25C13.5 6.11193 13.3881 6 13.25 6H11.75Z" fill="black"/>
</svg>

<svg xmlns="http://www.w3.org/2000/svg" viewBox="0 0 16 16" fill="currentColor" aria-hidden="true" data-slot="icon">
  <path fill-rule="evenodd" d="M1 3.5A1.5 1.5 0 0 1 2.5 2h11A1.5 1.5 0 0 1 15 3.5v9a1.5 1.5 0 0 1-1.5 1.5h-11A1.5 1.5 0 0 1 1 12.5v-9Zm1.5.25a.25.25 0 0 1 .25-.25h1.5a.25.25 0 0 1 .25.25v1a.25.25 0 0 1-.25.25h-1.5a.25.25 0 0 1-.25-.25v-1Zm3.75-.25a.25.25 0 0 0-.25.25v3.5c0 .138.112.25.25.25h3.5a.25.25 0 0 0 .25-.25v-3.5a.25.25 0 0 0-.25-.25h-3.5ZM6 8.75a.25.25 0 0 1 .25-.25h3.5a.25.25 0 0 1 .25.25v3.5a.25.25 0 0 1-.25.25h-3.5a.25.25 0 0 1-.25-.25v-3.5Zm5.75-5.25a.25.25 0 0 0-.25.25v1c0 .138.112.25.25.25h1.5a.25.25 0 0 0 .25-.25v-1a.25.25 0 0 0-.25-.25h-1.5ZM2.5 11.25a.25.25 0 0 1 .25-.25h1.5a.25.25 0 0 1 .25.25v1a.25.25 0 0 1-.25.25h-1.5a.25.25 0 0 1-.25-.25v-1Zm9.25-.25a.25.25 0 0 0-.25.25v1c0 .138.112.25.25.25h1.5a.25.25 0 0 0 .25-.25v-1a.25.25 0 0 0-.25-.25h-1.5ZM2.5 8.75a.25.25 0 0 1 .25-.25h1.5a.25.25 0 0 1 .25.25v1a.25.25 0 0 1-.25.25h-1.5a.25.25 0 0 1-.25-.25v-1Zm9.25-.25a.25.25 0 0 0-.25.25v1c0 .138.112.25.25.25h1.5a.25.25 0 0 0 .25-.25v-1a.25.25 0 0 0-.25-.25h-1.5ZM2.5 6.25A.25.25 0 0 1 2.75 6h1.5a.25.25 0 0 1 .25.25v1a.25.25 0 0 1-.25.25h-1.5a.25.25 0 0 1-.25-.25v-1ZM11.75 6a.25.25 0 0 0-.25.25v1c0 .138.112.25.25.25h1.5a.25.25 0 0 0 .25-.25v-1a.25.25 0 0 0-.25-.25h-1.5Z" clip-rule="evenodd"/>
</svg>
